X:215
T:Morgiana
R:jig 32
M:6/8
L:1/8
Q:3/8=120
K:Gmaj
|:d|dBd b2a|gfe d2d|dBd gdb|c'ba age|
dBd b2a|gfe d2d|dBd gdg|baf g2:|]
a|aba gfe|ddd c'2d|bdd gdd|bdd a3|
aba gfe|ddd c'2d|bdd gdd|agf edc|
BGB B2d|BGB B2d|c2e B2d|A3 A2 d|
BGB B2d|BGB B2d|e2g f2a|g3 g2|]

